X:18
T:When Celtic was Cool
R:reel
C:Paul S. Cranford
O:Cape Breton Island
S:http://www.cranfordpub.com
D:currently unrecorded
B:currently unpublished in book form
Z:psc
H:                                                        copyrights Cranford Publications, SOCAN
L:1/8
Q:333
M:C|
K:Bb
FE|DB, B,/B,/B, DB,_A,F|DB, B,/B,/B, B2 Bc|dBcA BFDF|EC_A,C E2 FE|
DB, B,/B,/B, DB,_A,F|DB, B,/B,/B, B2 Bc|[1dBcA BFDF|EC_A,C B,2:|[2dBcA BFdB|c_A\e\c B2||
|:Bc|dB B/B/B _Acec|dB B/B/B bfge|dB B/B/B _Acec|dfec B2 Bc|
dB B/B/B _AECE|DB, B,/B,/B, _A,2 FE|DB,DF BFDF|EC_A,C B,2:|
